assets/images/photo1.svg

<svg width="80" height="80" viewBox="0 0 80 80" fill="none" xmlns="http://www.w3.org/2000/svg">
<g clip-path="url(#clip0)">
<path d="M78.7044 56.7319L41.0481 37.9038C40.3883 37.5739 39.6117 37.5739 38.9519 37.9038L1.29562 56.7319C0.501562 57.1287 0 57.9403 0 58.8281C0 59.7159 0.501562 60.5275 1.29562 60.9244L38.9519 79.7525C39.2817 79.9175 39.6409 80 40 80C40.3591 80 40.7183 79.9175 41.0481 79.7525L78.7044 60.9244C79.4984 60.5275 80 59.7159 80 58.8281C80 57.9403 79.4984 57.1287 78.7044 56.7319Z" fill="#146288"/>
<path d="M78.704 56.7319L41.0477 37.9038C40.7005 37.7302 40.3212 37.6505 39.9434 37.6595V79.9967C39.9621 79.9972 39.9809 80 39.9996 80C40.3587 80 40.7179 79.9175 41.0477 79.7525L78.704 60.9244C79.498 60.5275 79.9996 59.7159 79.9996 58.8281C79.9996 57.9403 79.498 57.1288 78.704 56.7319Z" fill="#132644" fill-opacity="0.1"/>
<path d="M78.7044 37.9037L41.0481 19.0756C40.3883 18.7458 39.6117 18.7458 38.9519 19.0756L1.29562 37.9037C0.501562 38.3006 0 39.1122 0 40C0 40.8878 0.501562 41.6994 1.29562 42.0962L38.9519 60.9244C39.2817 61.0894 39.6409 61.1719 40 61.1719C40.3591 61.1719 40.7183 61.0894 41.0481 60.9244L78.7044 42.0962C79.4984 41.6994 80 40.8877 80 40C80 39.1123 79.4984 38.3006 78.7044 37.9037Z" fill="#3896C3"/>
<path d="M78.704 37.9038L41.0477 19.0756C40.7005 18.902 40.3212 18.8223 39.9434 18.8314V61.1686C39.9621 61.1691 39.9809 61.1719 39.9996 61.1719C40.3587 61.1719 40.7179 61.0894 41.0477 60.9244L78.704 42.0963C79.498 41.6994 79.9996 40.8877 79.9996 40C79.9996 39.1124 79.498 38.3006 78.704 37.9038Z" fill="#132644" fill-opacity="0.1"/>
<path d="M78.7044 19.0763L41.0481 0.248146C40.3883 -0.081698 39.6117 -0.081698 38.9519 0.248146L1.29562 19.0763C0.501562 19.4731 0 20.2847 0 21.1725C0 22.0603 0.501562 22.8719 1.29562 23.2688L38.9519 42.0969C39.2817 42.2619 39.6409 42.3444 40 42.3444C40.3591 42.3444 40.7183 42.2619 41.0481 42.0969L78.7044 23.2688C79.4984 22.8719 80 22.0603 80 21.1725C80 20.2847 79.4984 19.4731 78.7044 19.0763Z" fill="#8BC3DE"/>
<path d="M78.704 19.0756L41.0477 0.247506C40.7005 0.0739124 40.3212 -0.00577514 39.9434 0.00328736V42.3405C39.9621 42.3409 39.9809 42.3438 39.9996 42.3438C40.3587 42.3438 40.7179 42.2612 41.0477 42.0962L78.704 23.2681C79.498 22.8713 79.9996 22.0597 79.9996 21.1719C79.9996 20.2841 79.498 19.4725 78.704 19.0756Z" fill="#132644" fill-opacity="0.1"/>
</g>
<defs>
<clipPath id="clip0">
<rect width="80" height="80" fill="white"/>
</clipPath>
</defs>
</svg>

<svg width="80" height="80" fill="none" xmlns="http://www.w3.org/2000/svg"><g clip-path="url(#clip0)"><path d="M78.704 56.732L41.048 37.904a2.344 2.344 0 00-2.096 0L1.296 56.732a2.343 2.343 0 000 4.192l37.656 18.828a2.342 2.342 0 002.096 0l37.656-18.828a2.344 2.344 0 000-4.192z" fill="#146288"/><path d="M78.704 56.732L41.048 37.904a2.34 2.34 0 00-1.105-.245v42.338c.02 0 .038.003.057.003a2.33 2.33 0 001.048-.248l37.656-18.828a2.344 2.344 0 000-4.192z" fill="#132644" fill-opacity=".1"/><path d="M78.704 37.904L41.048 19.076a2.344 2.344 0 00-2.096 0L1.296 37.904a2.344 2.344 0 000 4.192l37.656 18.828a2.342 2.342 0 002.096 0l37.656-18.828a2.343 2.343 0 000-4.192z" fill="#3896C3"/><path d="M78.704 37.904L41.048 19.076a2.34 2.34 0 00-1.105-.245V61.17c.02 0 .038.003.057.003.359 0 .718-.083 1.048-.248l37.656-18.828a2.344 2.344 0 000-4.192z" fill="#132644" fill-opacity=".1"/><path d="M78.704 19.076L41.048.248a2.344 2.344 0 00-2.096 0L1.296 19.076a2.343 2.343 0 000 4.193l37.656 18.828a2.342 2.342 0 002.096 0l37.656-18.828a2.344 2.344 0 000-4.193z" fill="#8BC3DE"/><path d="M78.704 19.076L41.048.248a2.34 2.34 0 00-1.105-.245V42.34c.02 0 .038.004.057.004.359 0 .718-.083 1.048-.248l37.656-18.828a2.343 2.343 0 000-4.192z" fill="#132644" fill-opacity=".1"/></g><defs><clipPath id="clip0"><path fill="#fff" d="M0 0h80v80H0z"/></clipPath></defs></svg>
